icons/folder-check-outline.svg

<svg xmlns="http://www.w3.org/2000/svg" width="24" height="24" viewBox="0 0 24 24">
  <path d="M11,4 C11.2652165,4 11.5195704,4.10535684 11.7071068,4.29289322 L11.7071068,4.29289322 L13.415,6 L19,6 C20.5976809,6 21.9036609,7.24891996 21.9949073,8.82372721 L21.9949073,8.82372721 L22,9 L22,17 C22,18.6568542 20.6568542,20 19,20 L19,20 L5,20 C3.34314575,20 2,18.6568542 2,17 L2,17 L2,7 C2,5.34314575 3.34314575,4 5,4 L5,4 Z M10.585,6 L5,6 C4.44771525,6 4,6.44771525 4,7 L4,7 L4,17 C4,17.5522847 4.44771525,18 5,18 L5,18 L19,18 C19.5522847,18 20,17.5522847 20,17 L20,17 L20,9 C20,8.44771525 19.5522847,8 19,8 L19,8 L13,8 C12.7347835,8 12.4804296,7.89464316 12.2928932,7.70710678 L12.2928932,7.70710678 L10.585,6 Z M15.1616337,10.2501621 C15.543902,10.5874577 15.6069605,11.1518544 15.327,11.5624086 L15.2498499,11.6616216 L11.7204382,15.6616216 C11.3507811,16.0805663 10.7177952,16.1104909 10.3105198,15.7513955 L10.2207624,15.6616216 L8.75017421,13.994955 C8.38477067,13.580831 8.42426642,12.948899 8.83839043,12.5834955 C9.22065875,12.2461999 9.78851489,12.2539073 10.1610152,12.5828086 L10.2498499,12.6717117 L10.9700121,13.488 L13.7501742,10.3383784 C14.1155778,9.92425435 14.7475097,9.8847586 15.1616337,10.2501621 Z"/>
</svg>

<svg xmlns="http://www.w3.org/2000/svg" viewBox="0 0 24 24">
  <path d="M11 4a1 1 0 0 1 .7.3L13.42 6H19a3 3 0 0 1 3 2.82V17a3 3 0 0 1-3 3H5a3 3 0 0 1-3-3V7a3 3 0 0 1 3-3zm-.41 2H5a1 1 0 0 0-1 1v10a1 1 0 0 0 1 1h14a1 1 0 0 0 1-1V9a1 1 0 0 0-1-1h-6a1 1 0 0 1-.7-.3L10.58 6zm4.57 4.25a1 1 0 0 1 .17 1.31l-.08.1-3.53 4a1 1 0 0 1-1.4.1l-.1-.1L8.75 14a1 1 0 0 1 1.41-1.4l.09.08.72.82 2.78-3.15a1 1 0 0 1 1.41-.09z"/>
</svg>
